src/containers/site/SiteRobotsScreen/asset/huobi.svg

<svg width="128" height="33" viewBox="0 0 128 33" fill="none" xmlns="http://www.w3.org/2000/svg">
<g clip-path="url(#clip0)">
<path d="M39.7649 19.3527C37.9388 19.3527 36.1128 19.3527 34.2867 19.3527C33.825 19.3527 33.7354 19.4216 33.6941 19.8764C33.5425 21.5715 33.4046 23.2598 33.2599 24.955C33.0946 26.9189 32.9292 28.8896 32.7569 30.8535C32.7156 31.4117 32.4399 31.6529 31.8886 31.6529C30.6001 31.6529 29.3184 31.6529 28.0298 31.6529C27.4578 31.6529 27.2235 31.4255 27.2718 30.8535C27.4096 29.1033 27.5612 27.353 27.7059 25.6027C27.8575 23.8317 28.016 22.0608 28.1745 20.2898C28.395 17.7609 28.6155 15.2388 28.836 12.7099C29.0289 10.4566 29.2219 8.20326 29.4148 5.94994C29.47 5.34355 29.5113 4.73715 29.5802 4.13076C29.6422 3.62772 29.911 3.40032 30.4071 3.40032C31.7164 3.39343 33.0256 3.39343 34.3349 3.40032C34.8517 3.40032 35.0998 3.66218 35.0584 4.17899C34.8862 6.24625 34.707 8.3204 34.5279 10.3877C34.4107 11.7452 34.2798 13.1096 34.1695 14.4671C34.1351 14.8736 34.1902 14.9219 34.6105 14.9219C38.3109 14.9219 42.0044 14.9219 45.7048 14.9219C46.1252 14.9219 46.1941 14.8598 46.2354 14.4257C46.4422 12.0966 46.642 9.76059 46.8487 7.43148C46.9452 6.35651 47.0348 5.28153 47.1381 4.20655C47.1933 3.62083 47.4551 3.40032 48.034 3.39343C49.2881 3.39343 50.5353 3.39343 51.7895 3.39343C52.4028 3.39343 52.6233 3.65529 52.575 4.28235C52.3339 7.05937 52.0996 9.84328 51.8584 12.6203C51.5965 15.6178 51.3209 18.6085 51.059 21.606C50.8592 23.8455 50.68 26.0919 50.4871 28.3315C50.4113 29.1859 50.3424 30.0473 50.2666 30.9018C50.2184 31.4117 49.9427 31.6529 49.4259 31.6529C48.1373 31.6529 46.8556 31.6529 45.567 31.6529C45.0226 31.6529 44.7884 31.4186 44.8366 30.8604C44.9537 29.3582 45.0847 27.8629 45.2156 26.3676C45.3465 24.8447 45.4774 23.3287 45.6084 21.8058C45.6635 21.1512 45.7255 20.5035 45.7875 19.8488C45.8289 19.4354 45.7669 19.3596 45.3534 19.3527C43.486 19.3527 41.6254 19.3527 39.7649 19.3527Z" fill="#B5B5B5"/>
<path d="M58.2047 11.5247C58.8042 11.5247 59.3968 11.5247 59.9963 11.5247C60.5476 11.5247 60.8025 11.7796 60.7612 12.3378C60.6234 14.0674 60.4649 15.7901 60.3202 17.5197C60.1548 19.4629 59.9274 21.3993 59.8378 23.3494C59.8034 24.1418 59.8585 24.9343 60.079 25.6992C60.5889 27.4495 61.8706 28.0972 63.5727 27.9525C65.4401 27.794 66.4255 26.6019 66.963 24.9343C67.3007 23.88 67.4178 22.7843 67.5074 21.6818C67.6797 19.6214 67.8657 17.5679 68.0449 15.5076C68.1276 14.5153 68.2102 13.5161 68.286 12.5238C68.3481 11.7176 68.5548 11.5247 69.361 11.5247C70.4636 11.5247 71.5661 11.5247 72.6687 11.5247C73.344 11.5247 73.5645 11.7452 73.5025 12.4274C73.3509 14.2879 73.1855 16.1553 73.0201 18.0159C72.8271 20.1727 72.7031 22.3433 72.4068 24.4933C72.1656 26.2229 71.5937 27.8353 70.498 29.2204C69.3128 30.7157 67.7348 31.5771 65.8949 31.9768C63.7312 32.4453 61.5674 32.4591 59.4244 31.8734C56.7094 31.1292 55.1865 29.3169 54.711 26.5812C54.4836 25.2926 54.5456 23.9971 54.6628 22.7016C54.8212 20.9169 54.9728 19.1322 55.1313 17.3543C55.2829 15.6385 55.4345 13.9296 55.593 12.2137C55.6344 11.7934 55.9238 11.5315 56.351 11.5315C56.9643 11.5247 57.5845 11.5247 58.2047 11.5247Z" fill="#B5B5B5"/>
<path d="M14.8062 10.6774C14.82 12.3381 14.1516 13.6543 13.2144 14.8739C12.4082 15.9282 11.4435 16.8309 10.4994 17.7543C7.76373 20.4555 5.8963 23.6805 4.66284 27.2982C4.41477 28.0148 4.20115 28.7384 4.04266 29.4826C3.96686 29.834 3.90484 29.8547 3.6361 29.6135C-0.953221 25.5892 -1.23575 18.7328 3.00214 14.3364C3.54652 13.7714 4.17358 13.3028 4.71796 12.7447C7.0264 10.4018 8.5424 7.63852 9.08677 4.37225C9.30728 3.02853 9.39686 1.68481 9.27283 0.32731C9.25905 0.217056 9.20392 0.0792388 9.34174 0.017221C9.47266 -0.0447968 9.55535 0.0792389 9.63804 0.148148C10.8439 1.20934 11.8362 2.45659 12.6769 3.82098C13.869 5.75042 14.5099 7.85903 14.7855 10.0986C14.8062 10.3122 14.7993 10.5327 14.8062 10.6774Z" fill="#B5B5B5"/>
<path d="M10.5683 32.1214C9.42445 32.1007 8.30124 31.894 7.18492 31.6046C7.02643 31.5632 6.8955 31.5219 6.94374 31.3152C6.97819 31.1498 6.96441 30.9844 7.21937 30.9568C7.81888 30.8948 8.20477 30.5503 8.35637 29.9714C8.42528 29.7165 8.48729 29.4546 8.50797 29.1928C8.63889 27.408 9.47958 25.9403 10.5408 24.569C11.5882 23.2253 12.863 22.0883 14.0138 20.841C15.9225 18.7669 17.473 16.4722 18.4101 13.7917C18.4446 13.6883 18.4446 13.5367 18.5893 13.5229C18.7478 13.5092 18.7823 13.6676 18.8374 13.771C19.6298 15.1974 20.1535 16.7203 20.4498 18.3259C20.7048 19.6972 20.8564 21.0753 20.7324 22.4673C20.4636 25.5682 19.1544 28.1178 16.6461 29.999C14.8545 31.3496 12.8423 32.1007 10.5683 32.1214Z" fill="#B5B5B5"/>
<path d="M123.09 31.6528C122.504 31.6528 121.918 31.6528 121.332 31.6528C120.767 31.6528 120.526 31.3979 120.574 30.8052C120.692 29.3651 120.829 27.9249 120.953 26.4847C121.174 23.9213 121.394 21.3648 121.615 18.8014C121.801 16.6376 121.987 14.4808 122.18 12.3239C122.228 11.7796 122.518 11.5315 123.062 11.5315C124.247 11.5315 125.426 11.5315 126.611 11.5315C127.19 11.5315 127.431 11.7796 127.383 12.3653C127.224 14.3085 127.045 16.2517 126.879 18.195C126.631 21.0409 126.39 23.8868 126.142 26.7327C126.018 28.1247 125.894 29.5235 125.756 30.9155C125.708 31.4254 125.453 31.6528 124.95 31.6528C124.33 31.6528 123.71 31.6528 123.09 31.6528Z" fill="#B5B5B5"/>
<path d="M125.033 9.53316C124.434 9.53316 123.841 9.53316 123.241 9.53316C122.718 9.53316 122.47 9.29198 122.504 8.77517C122.587 7.6175 122.69 6.46673 122.794 5.31596C122.828 4.92318 123.124 4.65443 123.545 4.64754C124.806 4.63376 126.067 4.63376 127.328 4.64754C127.789 4.65443 128.037 4.96452 127.996 5.41932C127.893 6.54942 127.789 7.67952 127.679 8.80962C127.631 9.29198 127.376 9.52627 126.887 9.53316C126.273 9.54005 125.653 9.53316 125.033 9.53316Z" fill="#B5B5B5"/>
<path d="M116.564 14.1018C115.276 12.3446 113.573 11.2214 111.389 10.9802C108.97 10.7115 106.676 11.0767 104.65 12.5444C104.526 12.634 104.388 12.7029 104.236 12.6202C104.099 12.5444 104.105 12.4135 104.119 12.2826C104.264 10.6563 104.409 9.037 104.546 7.41075C104.657 6.14973 104.767 4.89559 104.863 3.63456C104.898 3.15909 104.684 2.90413 104.25 2.89724C102.962 2.88346 101.68 2.89035 100.391 2.89724C99.9847 2.89724 99.7366 3.1522 99.6884 3.55876C99.6539 3.86196 99.6333 4.17205 99.6057 4.48214C99.3852 6.99041 99.1647 9.49179 98.9442 11.9932C98.7719 13.9846 98.6134 15.9692 98.4411 17.9607C98.2413 20.2209 98.0415 22.488 97.8416 24.7482C97.6694 26.781 97.4971 28.8207 97.3179 30.8535C97.2766 31.3496 97.5247 31.6528 98.0208 31.6528C99.2612 31.6597 100.502 31.6597 101.742 31.6528C102.204 31.6528 102.459 31.4116 102.527 30.9568C102.562 30.7088 102.603 30.4607 102.651 30.1506C102.962 30.5365 103.272 30.8466 103.63 31.1153C103.988 31.3565 104.36 31.5839 104.774 31.7355C106.483 32.3695 108.247 32.4797 110.025 32.1696C112.499 31.7355 114.407 30.378 115.923 28.421C117.446 26.4502 118.232 24.19 118.48 21.73C118.762 18.9598 118.232 16.3827 116.564 14.1018ZM113.222 20.9237C113.167 23.1977 112.45 25.1754 110.645 26.6569C109.081 27.9386 106.435 28.0902 104.946 26.9601C103.706 26.0092 103.003 24.7413 102.81 23.2046C102.562 21.22 102.975 19.3733 104.202 17.7746C105.539 16.0312 107.303 15.1836 109.535 15.5833C110.858 15.8176 111.761 16.6721 112.416 17.7953C112.981 18.76 113.25 19.8074 113.222 20.9237Z" fill="#B5B5B5"/>
<path d="M95.7258 18.2845C95.2159 15.3008 93.5621 13.0888 90.7919 11.7865C89.3035 11.0836 87.7117 10.8493 86.0717 10.8838C81.9165 10.9733 78.6846 12.7305 76.5416 16.3C74.9498 18.953 74.5226 21.8747 75.0532 24.8998C75.4804 27.3529 76.7414 29.3168 78.8156 30.7226C80.5383 31.894 82.4815 32.2868 84.5281 32.3006C84.6866 32.3006 84.8451 32.3144 85.0036 32.3006C85.4033 32.273 85.8029 32.2523 86.2026 32.1972C89.5722 31.7424 92.1908 30.0817 94.0169 27.2358C95.774 24.5001 96.2633 21.4543 95.7258 18.2845ZM89.4138 25.1272C88.6971 26.2711 87.7186 27.1669 86.3749 27.5114C84.6315 27.9524 82.9846 27.7733 81.6271 26.4571C80.6417 25.4993 80.2075 24.2865 80.1248 22.929C80.118 22.7498 80.1248 22.5638 80.1248 22.3846C80.1386 20.4207 80.6623 18.6429 82.0474 17.1889C83.4807 15.6798 85.2448 15.163 87.2569 15.6316C88.6833 15.9554 89.5791 16.9615 90.1166 18.257C91.102 20.655 90.7644 22.9566 89.4138 25.1272Z" fill="#B5B5B5"/>
</g>
<defs>
<clipPath id="clip0">
<rect width="128" height="32.3364" fill="white"/>
</clipPath>
</defs>
</svg>

<svg width="128" height="33" fill="none" xmlns="http://www.w3.org/2000/svg"><g clip-path="url(#clip0)" fill="#B5B5B5"><path d="M39.765 19.353h-5.478c-.462 0-.552.069-.593.523-.152 1.695-.29 3.384-.434 5.079-.165 1.964-.33 3.935-.503 5.899-.041.558-.317.799-.868.799h-3.86c-.571 0-.805-.227-.757-.8.138-1.75.29-3.5.434-5.25.152-1.771.31-3.542.468-5.313l.662-7.58.579-6.76c.055-.606.096-1.213.165-1.82.062-.502.331-.73.827-.73 1.31-.007 2.619-.007 3.928 0 .517 0 .765.262.723.779-.172 2.067-.351 4.141-.53 6.209-.117 1.357-.248 2.722-.358 4.08-.035.406.02.454.44.454h11.095c.42 0 .49-.062.53-.496.207-2.33.407-4.665.614-6.995.096-1.074.186-2.15.29-3.224.054-.586.316-.807.895-.814h3.755c.614 0 .834.262.786.89-.241 2.776-.475 5.56-.717 8.337-.261 2.998-.537 5.989-.799 8.986-.2 2.24-.379 4.486-.572 6.725-.076.855-.145 1.716-.22 2.57-.049.51-.324.752-.841.752h-3.859c-.544 0-.779-.234-.73-.793.117-1.502.248-2.997.379-4.492l.392-4.562c.056-.655.117-1.303.18-1.957.04-.414-.021-.49-.435-.496h-5.588zM58.205 11.525h1.791c.552 0 .806.255.765.813-.138 1.73-.296 3.452-.44 5.182-.166 1.943-.394 3.88-.483 5.83-.035.792.02 1.584.241 2.35.51 1.75 1.792 2.397 3.494 2.253 1.867-.159 2.852-1.351 3.39-3.019.338-1.054.455-2.15.544-3.252.173-2.06.359-4.114.538-6.174.083-.993.165-1.992.241-2.984.062-.806.269-1 1.075-1h3.308c.675 0 .895.221.834.903-.152 1.86-.317 3.728-.483 5.589-.193 2.157-.317 4.327-.613 6.477-.241 1.73-.813 3.342-1.909 4.727-1.185 1.496-2.763 2.357-4.603 2.757-2.164.468-4.328.482-6.47-.104-2.716-.744-4.238-2.556-4.714-5.292-.227-1.288-.165-2.584-.048-3.88.158-1.784.31-3.569.468-5.347.152-1.715.303-3.424.462-5.14.041-.42.33-.683.758-.683.613-.006 1.233-.006 1.854-.006zM14.806 10.677c.014 1.661-.654 2.977-1.592 4.197-.806 1.054-1.77 1.957-2.715 2.88-2.735 2.701-4.603 5.926-5.836 9.544-.248.717-.462 1.44-.62 2.185-.076.351-.138.372-.407.13-4.59-4.024-4.872-10.88-.634-15.277.545-.565 1.172-1.033 1.716-1.591 2.308-2.343 3.824-5.106 4.369-8.373.22-1.343.31-2.687.186-4.045-.014-.11-.07-.248.069-.31.13-.062.213.062.296.131 1.206 1.061 2.198 2.309 3.039 3.673 1.192 1.93 1.833 4.038 2.109 6.278.02.213.013.434.02.578zM10.568 32.121c-1.144-.02-2.267-.227-3.383-.516-.159-.042-.29-.083-.241-.29.034-.165.02-.33.275-.358.6-.062.986-.407 1.137-.986a4.32 4.32 0 00.152-.778c.13-1.785.972-3.253 2.033-4.624 1.047-1.344 2.322-2.48 3.473-3.728 1.909-2.074 3.459-4.369 4.396-7.05.035-.103.035-.254.18-.268.158-.014.192.145.247.248a14.853 14.853 0 011.613 4.555c.255 1.371.406 2.75.282 4.141-.268 3.101-1.578 5.65-4.086 7.532-1.792 1.35-3.804 2.102-6.078 2.122zM123.09 31.653h-1.758c-.565 0-.806-.255-.758-.848.118-1.44.255-2.88.379-4.32l.662-7.684c.186-2.163.372-4.32.565-6.477.048-.544.338-.793.882-.793h3.549c.579 0 .82.249.772.834-.159 1.944-.338 3.887-.504 5.83-.248 2.846-.489 5.692-.737 8.538-.124 1.392-.248 2.79-.386 4.183-.048.51-.303.737-.806.737h-1.86zM125.033 9.533h-1.792c-.523 0-.771-.241-.737-.758.083-1.158.186-2.308.29-3.459.034-.393.33-.662.751-.668 1.261-.014 2.522-.014 3.783 0 .461.006.709.317.668.771-.103 1.13-.207 2.26-.317 3.39-.048.483-.303.717-.792.724-.614.007-1.234 0-1.854 0zM116.564 14.102c-1.288-1.757-2.991-2.88-5.175-3.122-2.419-.269-4.713.097-6.739 1.564-.124.09-.262.159-.414.076-.137-.076-.131-.206-.117-.337.145-1.627.29-3.246.427-4.872.111-1.261.221-2.515.317-3.776.035-.476-.179-.73-.613-.738-1.288-.014-2.57-.007-3.859 0-.406 0-.654.255-.703.662-.034.303-.055.613-.082.923-.22 2.508-.441 5.01-.662 7.511-.172 1.992-.33 3.976-.503 5.968l-.6 6.787c-.172 2.033-.344 4.073-.523 6.105-.041.497.207.8.703.8 1.24.007 2.481.007 3.721 0 .462 0 .717-.241.785-.696.035-.248.076-.496.124-.806.311.386.621.696.979.964.358.242.73.469 1.144.62 1.709.635 3.473.745 5.251.435 2.474-.435 4.382-1.792 5.898-3.749 1.523-1.97 2.309-4.231 2.557-6.691.282-2.77-.248-5.347-1.916-7.628zm-3.342 6.822c-.055 2.274-.772 4.251-2.577 5.733-1.564 1.282-4.21 1.433-5.699.303-1.24-.95-1.943-2.219-2.136-3.755-.248-1.985.165-3.832 1.392-5.43 1.337-1.744 3.101-2.591 5.333-2.192 1.323.235 2.226 1.09 2.881 2.212.565.965.834 2.012.806 3.129zM95.726 18.285c-.51-2.984-2.164-5.196-4.934-6.498-1.489-.703-3.08-.938-4.72-.903-4.156.09-7.387 1.846-9.53 5.416-1.592 2.653-2.02 5.575-1.489 8.6.427 2.453 1.688 4.417 3.763 5.823 1.722 1.171 3.665 1.564 5.712 1.578.159 0 .317.013.476 0 .4-.028.799-.049 1.199-.104 3.37-.455 5.988-2.115 7.814-4.961 1.757-2.736 2.246-5.782 1.709-8.951zm-6.312 6.842c-.717 1.144-1.695 2.04-3.04 2.384-1.742.441-3.39.262-4.747-1.054-.985-.958-1.42-2.17-1.502-3.528-.007-.18 0-.365 0-.544.014-1.964.537-3.742 1.922-5.196 1.434-1.51 3.198-2.026 5.21-1.557 1.426.323 2.322 1.33 2.86 2.625.985 2.398.647 4.7-.703 6.87z"/></g><defs><clipPath id="clip0"><path fill="#fff" d="M0 0h128v32.336H0z"/></clipPath></defs></svg>
